!!!OTL: Weihnachten.
!!!OTL-incipit: UNS LEUCHTET HEUT DERFREUDE STERN
!!!ARE: Europa, Mitteleuropa, Deutschland, Niederrhein
!!!SCT: Z1124
!!!TXL: @@DE
!!!YEM: Copyright 1995, estate of Helmut Schaffrath.
**kern	**text
*ICvox	*
*M6/8	*
*k[f#]	*
*G:	*
!LO:TX:a:t=Vorſänger.	!
!LO:TX:a:t=Vom Niederrhein.	!
{8d	Uns
=1	=1
4g	leuch-
8a	-tet
(8bL	heut
8aJ)	.
8dd	der
=2	=2
(8cc#L	Freu-
8ddJ)	.
8ee	-de
(8ddL	Stern!
8cc#J)}	.
!LO:TX:a:t=Alle.	!
{8dd/	auf,
=3	=3
8aL	Ju-
8bJ	.
8cc#/	-bel-
4dd/;}	-klang!
!LO:TX:a:t=Vorſänger.	!
{(16bL	wir
16ccnJ)	.
=4	=4
4dd	grü-
8ee	-ßen
8ddL	den
8ccJ	.
8b	er-
=5	=5
4cc	-kor-
8dd	-nen
8bL	Herrn!
8aJ}	.
{8g	ſtrömt
=6	=6
4a	aus
8b	in
8ddqq	.
8ccL	Feſt-
8bJ	.
8a	-ge-
=7	=7
4g	-ſang!
8r	.
4r}	.
!LO:TX:a:t=Alle.	!
{(16b/L	wir
16ccJ)	.
=8	=8
4dd/	grü-
8ee/	-ßen
8dd/L	den
8ccJ	.
8b/	er-
=9	=9
4cc/	-kor-
8dd/	-nen
8bL	Herrn!
8aJ}	.
{8g	ſtrömt
=10	=10
4a	aus
8b/	in
8cc/L	Feſt-
8bJ	.
8a	-ge-
=11	=11
4g;	-ſang!
8r	.
4r}	.
==	==
!!!AGN: religioeses Lied, Weihnachts - Lied
!!!ONB: ESAC (Essen Associative Code) Database: ZUCCAL
!!!AMT: compound duple
!!!AIN: vox
!!!EED: Helmut Schaffrath
!!!EEV: 1.0
!!!GTL: III. Haus- Andacht.
!!!URL-scan: https://www.digitale-sammlungen.de/de/view/bsb11160573?page=271
!!!ENC: Anna Maria Matuszewska
!!!EEV: 2025/02/04
*-	*-
